assets/images/trash.svg

<svg width="13" height="13" viewBox="0 0 13 13" fill="none" xmlns="http://www.w3.org/2000/svg">
<g clip-path="url(#clip0_76_14784)">
<path d="M11.373 2.95596H9.82305C9.707 2.39167 9.39996 1.88464 8.95367 1.52032C8.50739 1.15601 7.94915 0.95669 7.37305 0.955963L6.37305 0.955963C5.79694 0.95669 5.23871 1.15601 4.79242 1.52032C4.34614 1.88464 4.0391 2.39167 3.92305 2.95596H2.37305C2.24044 2.95596 2.11326 3.00864 2.01949 3.10241C1.92573 3.19618 1.87305 3.32335 1.87305 3.45596C1.87305 3.58857 1.92573 3.71575 2.01949 3.80952C2.11326 3.90328 2.24044 3.95596 2.37305 3.95596H2.87305V10.456C2.87384 11.1188 3.13749 11.7542 3.60616 12.2229C4.07483 12.6915 4.71025 12.9552 5.37305 12.956H8.37305C9.03584 12.9552 9.67127 12.6915 10.1399 12.2229C10.6086 11.7542 10.8723 11.1188 10.873 10.456V3.95596H11.373C11.5057 3.95596 11.6328 3.90328 11.7266 3.80952C11.8204 3.71575 11.873 3.58857 11.873 3.45596C11.873 3.32335 11.8204 3.19618 11.7266 3.10241C11.6328 3.00864 11.5057 2.95596 11.373 2.95596ZM6.37305 1.95596H7.37305C7.68318 1.95634 7.98561 2.05265 8.23885 2.23168C8.4921 2.41072 8.68376 2.66371 8.78755 2.95596H4.95855C5.06234 2.66371 5.254 2.41072 5.50724 2.23168C5.76048 2.05265 6.06291 1.95634 6.37305 1.95596ZM9.87305 10.456C9.87305 10.8538 9.71501 11.2353 9.43371 11.5166C9.1524 11.7979 8.77087 11.956 8.37305 11.956H5.37305C4.97522 11.956 4.59369 11.7979 4.31239 11.5166C4.03108 11.2353 3.87305 10.8538 3.87305 10.456V3.95596H9.87305V10.456Z" fill="#DC3545"/>
<path d="M5.87305 9.95599C6.00566 9.95599 6.13283 9.90332 6.2266 9.80955C6.32037 9.71578 6.37305 9.5886 6.37305 9.45599V6.45599C6.37305 6.32339 6.32037 6.19621 6.2266 6.10244C6.13283 6.00867 6.00566 5.95599 5.87305 5.95599C5.74044 5.95599 5.61326 6.00867 5.51949 6.10244C5.42573 6.19621 5.37305 6.32339 5.37305 6.45599V9.45599C5.37305 9.5886 5.42573 9.71578 5.51949 9.80955C5.61326 9.90332 5.74044 9.95599 5.87305 9.95599ZM7.87305 9.95599C8.00566 9.95599 8.13283 9.90332 8.2266 9.80955C8.32037 9.71578 8.37305 9.5886 8.37305 9.45599V6.45599C8.37305 6.32339 8.32037 6.19621 8.2266 6.10244C8.13283 6.00867 8.00566 5.95599 7.87305 5.95599C7.74044 5.95599 7.61326 6.00867 7.51949 6.10244C7.42573 6.19621 7.37305 6.32339 7.37305 6.45599V9.45599C7.37305 9.5886 7.42573 9.71578 7.51949 9.80955C7.61326 9.90332 7.74044 9.95599 7.87305 9.95599Z" fill="#DC3545"/>
</g>
<defs>
<clipPath id="clip0_76_14784">
<rect width="12" height="12" fill="white" transform="translate(0.873047 0.955963)"/>
</clipPath>
</defs>
</svg>

<svg width="13" height="13" fill="none" xmlns="http://www.w3.org/2000/svg"><g clip-path="url(#a)" fill="#DC3545"><path d="M11.373 2.956h-1.55a2.505 2.505 0 0 0-2.45-2h-1a2.505 2.505 0 0 0-2.45 2h-1.55a.5.5 0 0 0 0 1h.5v6.5a2.503 2.503 0 0 0 2.5 2.5h3a2.503 2.503 0 0 0 2.5-2.5v-6.5h.5a.5.5 0 1 0 0-1Zm-5-1h1a1.503 1.503 0 0 1 1.415 1h-3.83a1.503 1.503 0 0 1 1.415-1Zm3.5 8.5a1.5 1.5 0 0 1-1.5 1.5h-3a1.5 1.5 0 0 1-1.5-1.5v-6.5h6v6.5Z"/><path d="M5.873 9.956a.5.5 0 0 0 .5-.5v-3a.5.5 0 0 0-1 0v3a.5.5 0 0 0 .5.5Zm2 0a.5.5 0 0 0 .5-.5v-3a.5.5 0 0 0-1 0v3a.5.5 0 0 0 .5.5Z"/></g><defs><clipPath id="a"><path fill="#fff" transform="translate(.873 .956)" d="M0 0h12v12H0z"/></clipPath></defs></svg>
